icons/nginx.svg

<svg clip-rule="evenodd" fill-rule="evenodd" stroke-linejoin="round" stroke-miterlimit="2" version="1.1" viewBox="0 0 24 24" xml:space="preserve" xmlns="http://www.w3.org/2000/svg">
    <path d="m11.794 1.46c0.123-0.071 0.275-0.071 0.398 0 1.22 0.701 7.661 4.403 8.884 5.106 0.124 0.072 0.201 0.204 0.201 0.347v10.21c0 0.143-0.077 0.275-0.201 0.346-1.223 0.703-7.664 4.406-8.884 5.107-0.123 0.071-0.275 0.071-0.398 0-1.22-0.701-7.661-4.404-8.884-5.107-0.124-0.071-0.201-0.203-0.201-0.346v-10.21c0-0.143 0.077-0.275 0.201-0.347 1.223-0.703 7.664-4.405 8.884-5.106zm-2.825 8.738 5.531 6.625s0.65 0.571 1.577 0.514c1.12-0.07 1.232-1.009 1.232-1.009l1e-3 -8.694s0-3e-3 -1e-3 -8e-3c-0.12-0.584-0.633-1.004-1.229-1.005-0.596-2e-3 -1.11 0.416-1.232 1-2e-3 9e-3 -3e-3 0.013-3e-3 0.013l5e-3 6.107-5.678-6.688s-0.454-0.512-1.516-0.396c-1.044 0.115-1.156 1.009-1.156 1.009l0.01 8.625s1e-3 5e-3 2e-3 0.013c0.097 0.604 0.619 1.048 1.23 1.047s1.131-0.446 1.227-1.05c1e-3 -7e-3 2e-3 -0.01 2e-3 -0.01l-2e-3 -6.093z" fill="#43a047"/>
</svg>

<?xml version="1.0" encoding="UTF-8" standalone="no"?>
<!DOCTYPE svg PUBLIC "-//W3C//DTD SVG 1.1//EN" "http://www.w3.org/Graphics/SVG/1.1/DTD/svg11.dtd">
<svg width="100%" height="100%" viewBox="0 0 24 24" version="1.1" xmlns="http://www.w3.org/2000/svg" xmlns:xlink="http://www.w3.org/1999/xlink" xml:space="preserve" xmlns:serif="http://www.serif.com/" style="fill-rule:evenodd;clip-rule:evenodd;stroke-linejoin:round;stroke-miterlimit:2;">
    <path d="M11.794,1.46C11.917,1.389 12.069,1.389 12.192,1.46C13.412,2.161 19.853,5.863 21.076,6.566C21.2,6.638 21.277,6.77 21.277,6.913C21.277,8.32 21.277,15.715 21.277,17.123C21.277,17.266 21.2,17.398 21.076,17.469C19.853,18.172 13.412,21.875 12.192,22.576C12.069,22.647 11.917,22.647 11.794,22.576C10.574,21.875 4.133,18.172 2.91,17.469C2.786,17.398 2.709,17.266 2.709,17.123C2.709,15.715 2.709,8.32 2.709,6.913C2.709,6.77 2.786,6.638 2.91,6.566C4.133,5.863 10.574,2.161 11.794,1.46ZM8.969,10.198L14.5,16.823C14.5,16.823 15.15,17.394 16.077,17.337C17.197,17.267 17.309,16.328 17.309,16.328L17.31,7.634C17.31,7.634 17.31,7.631 17.309,7.626C17.189,7.042 16.676,6.622 16.08,6.621C15.484,6.619 14.97,7.037 14.848,7.621C14.846,7.63 14.845,7.634 14.845,7.634L14.85,13.741L9.172,7.053C9.172,7.053 8.718,6.541 7.656,6.657C6.612,6.772 6.5,7.666 6.5,7.666L6.51,16.291C6.51,16.291 6.511,16.296 6.512,16.304C6.609,16.908 7.131,17.352 7.742,17.351C8.353,17.35 8.873,16.905 8.969,16.301C8.97,16.294 8.971,16.291 8.971,16.291L8.969,10.198Z" style="fill:#388e3c;"/>
</svg>
